Newaita/actions/32/address-book-new.svg

<svg height="32" viewBox="0 0 32 32" width="32" xmlns="http://www.w3.org/2000/svg"><g fill="#424242"><path d="m10.914062 10.171875h9.925782c.179687 0 .328125.148437.328125.332031v.660156c0 .183594-.148438.332032-.328125.332032h-9.925782c-.179687 0-.328124-.148438-.328124-.332032v-.660156c0-.183594.148437-.332031.328124-.332031zm0 0"/><path d="m10.914062 13.480469h9.925782c.179687 0 .328125.148437.328125.332031v.660156c0 .183594-.148438.332032-.328125.332032h-9.925782c-.179687 0-.328124-.148438-.328124-.332032v-.660156c0-.183594.148437-.332031.328124-.332031zm0 0"/><path d="m10.914062 16.789062h9.925782c.179687 0 .328125.148438.328125.328126v.664062c0 .183594-.148438.328125-.328125.328125h-9.925782c-.179687 0-.328124-.144531-.328124-.328125v-.664062c0-.179688.148437-.328126.328124-.328126zm0 0"/><path d="m7.9375 2.894531c-1.464844 0-2.644531 1.183594-2.644531 2.648438v21.167969c0 1.464843 1.179687 2.644531 2.644531 2.644531h15.878906c1.464844 0 2.644532-1.179688 2.644532-2.644531v-21.167969c0-1.464844-1.179688-2.648438-2.644532-2.648438zm1.324219 2.648438h13.230469c.734374 0 1.324218.589843 1.324218 1.320312v18.523438c0 .734375-.589844 1.324219-1.324218 1.324219h-13.230469c-.734375 0-1.324219-.589844-1.324219-1.324219v-18.523438c0-.730469.589844-1.320312 1.324219-1.320312zm0 0"/></g></svg>

<?xml version="1.0" encoding="UTF-8"?>
<svg xmlns="http://www.w3.org/2000/svg" xmlns:xlink="http://www.w3.org/1999/xlink" width="32px" height="32px" viewBox="0 0 32 32" version="1.1">
<g id="surface1">
<path style=" stroke:none;fill-rule:nonzero;fill:rgb(25.882354%,25.882354%,25.882354%);fill-opacity:1;" d="M 10.914062 10.171875 L 20.839844 10.171875 C 21.019531 10.171875 21.167969 10.320312 21.167969 10.503906 L 21.167969 11.164062 C 21.167969 11.347656 21.019531 11.496094 20.839844 11.496094 L 10.914062 11.496094 C 10.734375 11.496094 10.585938 11.347656 10.585938 11.164062 L 10.585938 10.503906 C 10.585938 10.320312 10.734375 10.171875 10.914062 10.171875 Z M 10.914062 10.171875 "/>
<path style=" stroke:none;fill-rule:nonzero;fill:rgb(25.882354%,25.882354%,25.882354%);fill-opacity:1;" d="M 10.914062 13.480469 L 20.839844 13.480469 C 21.019531 13.480469 21.167969 13.628906 21.167969 13.8125 L 21.167969 14.472656 C 21.167969 14.65625 21.019531 14.804688 20.839844 14.804688 L 10.914062 14.804688 C 10.734375 14.804688 10.585938 14.65625 10.585938 14.472656 L 10.585938 13.8125 C 10.585938 13.628906 10.734375 13.480469 10.914062 13.480469 Z M 10.914062 13.480469 "/>
<path style=" stroke:none;fill-rule:nonzero;fill:rgb(25.882354%,25.882354%,25.882354%);fill-opacity:1;" d="M 10.914062 16.789062 L 20.839844 16.789062 C 21.019531 16.789062 21.167969 16.9375 21.167969 17.117188 L 21.167969 17.78125 C 21.167969 17.964844 21.019531 18.109375 20.839844 18.109375 L 10.914062 18.109375 C 10.734375 18.109375 10.585938 17.964844 10.585938 17.78125 L 10.585938 17.117188 C 10.585938 16.9375 10.734375 16.789062 10.914062 16.789062 Z M 10.914062 16.789062 "/>
<path style=" stroke:none;fill-rule:nonzero;fill:rgb(25.882354%,25.882354%,25.882354%);fill-opacity:1;" d="M 7.9375 2.894531 C 6.472656 2.894531 5.292969 4.078125 5.292969 5.542969 L 5.292969 26.710938 C 5.292969 28.175781 6.472656 29.355469 7.9375 29.355469 L 23.816406 29.355469 C 25.28125 29.355469 26.460938 28.175781 26.460938 26.710938 L 26.460938 5.542969 C 26.460938 4.078125 25.28125 2.894531 23.816406 2.894531 Z M 9.261719 5.542969 L 22.492188 5.542969 C 23.226562 5.542969 23.816406 6.132812 23.816406 6.863281 L 23.816406 25.386719 C 23.816406 26.121094 23.226562 26.710938 22.492188 26.710938 L 9.261719 26.710938 C 8.527344 26.710938 7.9375 26.121094 7.9375 25.386719 L 7.9375 6.863281 C 7.9375 6.132812 8.527344 5.542969 9.261719 5.542969 Z M 9.261719 5.542969 "/>
</g>
</svg>
